!!!OTL: Kornschneiden ohne Text
!!!ARE: Westeuropa, England (?)
!!!YOR: 6, S. 212
!!    1600 gedruckt (ca.)
!!!SCT: Q0136B
!!!YEM: Copyright 1995, estate of Helmut Schaffrath.
**kern
*ICvox
*Ivox
!! Mixed meters:  6/4; 3/4
*M6/4
*k[f#]
*G:
{2g
4d
2g
4a
=1
4.b
8a
4b
2a}
{4f#
=2
2g
4.d
8d
4g
4a
=3
2.b
2.a}
=4
*M3/4
{2a
4b
=5
2cc
4cc
=6
2b
4b
=7
2a}
{4f#
=8
2g
4g
=9
2f#
8g
8f#
=10
*M6/4
4.e
8d
4c#
2.d}
=11
*M3/4
{8g
8g
8f#
8e
8d
8c
=12
2g
4a
=13
8b
8g
8b
8cc
4b
=14
2a}
{4f#
=15
2g
4d
=16
2g
4a
=17
4.b
8a
4b
=18
2.a}
=19
{4a
8f#
8g
8a
8b
=20
2cc
4cc
=21
4.b
8a
4b
=22
8f#
8g
8a}
{8d
8e
8f#
=23
2g
4g
=24
2f#
4g
=25
8c#
8d
8e
8d
8B
8c#
=26
2.d}
==
!!!AGN: Ballade, Beischlaf, Schwangerschaft, Moral
!! Instrumentalstueck nach der Balladenmelodie.
!!    Taktart entsprechend der Takteinteilung festgelegt.
!!!ONB: ESAC (Essen Associative Code) Database: BALLADE
!!!AMT: irregular
!!!AIN: vox
!!!EED: Helmut Schaffrath
!!!EEV: 1.0
*-
